icons/1_Primary/Niagahoster.svg

<svg width="1024" height="1024" fill="none" xmlns="http://www.w3.org/2000/svg"><g clip-path="url(#a)"><path d="M512 1024c282.77 0 512-229.23 512-512S794.77 0 512 0 0 229.23 0 512s229.23 512 512 512Z" fill="#728DBE"/><path d="M484.5 395.87a129.766 129.766 0 0 0-142.15 28.44l-89.18 89.63A72.802 72.802 0 0 0 232 565.28c0 39.83 32.61 72.59 72.24 72.59.87 0 1.74 0 2.62-.05a54.647 54.647 0 0 1-34.396-40.133 54.65 54.65 0 0 1 1.328-27.26 54.651 54.651 0 0 1 14.348-23.217l74.59-74.92 7.91-8 2.68-2.69 3-3.06c1.867-1.84 3.79-3.6 5.77-5.28A168.521 168.521 0 0 1 493.4 411.4a170.96 170.96 0 0 1 19.95 1.16 129.327 129.327 0 0 0-28.9-16.71l.05.02Zm302.25 35.39c-14.93-36.89-57.4-54.94-94.13-40l-.92.38a72.073 72.073 0 0 0-23 15.56l-54.57 54.85-7.87 7.95c-.24.23-.48.47-.73.69a24.092 24.092 0 0 1-33.32-.69l-41.87-42.07a157.2 157.2 0 0 0-94.16 6.46 81.55 81.55 0 0 1 56.55 24.19l72.39 72.74a34.201 34.201 0 0 0 48.24 0l89.37-89.8a24.606 24.606 0 0 1 2.78-2.41 54.094 54.094 0 0 1 49.346-11.245A54.09 54.09 0 0 1 791.9 462.35a72.69 72.69 0 0 0-5.16-31l.01-.09Zm-45.94 6.83a41.72 41.72 0 0 0-7.29.63 24.263 24.263 0 0 1 8.887 28.144 24.26 24.26 0 0 1-5.627 8.856L648 564.94l-.57.57a79.07 79.07 0 0 1-4.85 4.5 168.629 168.629 0 0 1-112.8 43.14 170.91 170.91 0 0 1-18.57-1 130.001 130.001 0 0 0 170.23-12.4l86.66-87 2.75-2.77c1-1 1.91-2 2.82-3a42.386 42.386 0 0 0-10.409-62.222 42.386 42.386 0 0 0-22.461-6.598l.01-.07Zm-152.44 151.6a81.859 81.859 0 0 1-57.37-24.2l-72-72.4a34.607 34.607 0 0 0-24.39-10.38 33.838 33.838 0 0 0-24.17 10l-21.25 21.38-8.95 9L359.45 544l-8.62 8.67L336.6 567l-12.73 12.8-2.54 2.57a24.008 24.008 0 0 1-19.444 6.983 23.997 23.997 0 0 1-17.666-10.713 42.383 42.383 0 0 0 23.397 46.242A42.387 42.387 0 0 0 325.59 629a42.001 42.001 0 0 0 28.67-11.32l.55-.54.55-.54.73-.73 23.48-23.6 38.14-38.33a24.097 24.097 0 0 1 33.86.19L494.23 597a157.215 157.215 0 0 0 94.14-7.31Z" fill="#fff"/></g><defs><clipPath id="a"><path fill="#fff" d="M0 0h1024v1024H0z"/></clipPath></defs></svg>

<svg width="1024" height="1024" viewBox="0 0 1024 1024" fill="none" xmlns="http://www.w3.org/2000/svg">
<g clip-path="url(#clip0_2_2931)">
<path d="M512 1024C794.77 1024 1024 794.77 1024 512C1024 229.23 794.77 0 512 0C229.23 0 0 229.23 0 512C0 794.77 229.23 1024 512 1024Z" fill="#728DBE"/>
<path d="M484.5 395.87C460.666 385.927 434.406 383.322 409.083 388.388C383.76 393.455 360.524 405.962 342.35 424.31L253.17 513.94C239.607 527.584 231.996 546.042 232 565.28C232 605.11 264.61 637.87 304.24 637.87C305.11 637.87 305.98 637.87 306.86 637.82C298.2 634.586 290.502 629.208 284.486 622.189C278.471 615.171 274.334 606.74 272.464 597.687C270.594 588.635 271.051 579.255 273.792 570.427C276.534 561.599 281.471 553.611 288.14 547.21L362.73 472.29L370.64 464.29L373.32 461.6L376.32 458.54C378.187 456.7 380.11 454.94 382.09 453.26C412.874 426.244 452.443 411.363 493.4 411.4C500.067 411.397 506.728 411.785 513.35 412.56C504.479 405.765 494.765 400.148 484.45 395.85L484.5 395.87ZM786.75 431.26C771.82 394.37 729.35 376.32 692.62 391.26L691.7 391.64C683.097 395.287 675.286 400.571 668.7 407.2L614.13 462.05L606.26 470C606.02 470.23 605.78 470.47 605.53 470.69C600.958 474.891 594.94 477.165 588.731 477.037C582.523 476.908 576.604 474.387 572.21 470L530.34 427.93C499.033 420.388 466.164 422.643 436.18 434.39C457.465 434.763 477.76 443.445 492.73 458.58L565.12 531.32C571.529 537.695 580.2 541.274 589.24 541.274C598.28 541.274 606.951 537.695 613.36 531.32L702.73 441.52C703.595 440.648 704.525 439.843 705.51 439.11C712.195 433.354 720.186 429.32 728.787 427.36C737.388 425.4 746.337 425.573 754.856 427.865C763.375 430.157 771.203 434.497 777.66 440.508C784.117 446.518 789.006 454.017 791.9 462.35C792.461 451.764 790.7 441.184 786.74 431.35L786.75 431.26ZM740.81 438.09C738.366 438.086 735.927 438.297 733.52 438.72C736.419 440.751 738.838 443.391 740.608 446.455C742.379 449.52 743.457 452.935 743.768 456.461C744.078 459.986 743.614 463.537 742.407 466.864C741.2 470.191 739.279 473.214 736.78 475.72L648 564.94L647.43 565.51C645.877 567.077 644.26 568.577 642.58 570.01C611.595 597.823 571.416 613.189 529.78 613.15C523.576 613.154 517.377 612.82 511.21 612.15C536.306 630.968 567.36 640.078 598.645 637.799C629.93 635.52 659.336 622.007 681.44 599.75L768.1 512.75L770.85 509.98C771.85 508.98 772.76 507.98 773.67 506.98C778.635 500.761 781.749 493.269 782.654 485.363C783.56 477.457 782.221 469.455 778.792 462.274C775.362 455.093 769.979 449.023 763.261 444.758C756.542 440.494 748.758 438.207 740.8 438.16L740.81 438.09ZM588.37 589.69C566.806 589.495 546.189 580.799 531 565.49L459 493.09C455.816 489.842 452.023 487.254 447.838 485.473C443.653 483.691 439.158 482.753 434.61 482.71C430.119 482.69 425.669 483.563 421.52 485.28C417.37 486.997 413.604 489.523 410.44 492.71L389.19 514.09L380.24 523.09L359.45 544L350.83 552.67L336.6 567L323.87 579.8L321.33 582.37C318.813 584.908 315.762 586.853 312.398 588.061C309.034 589.269 305.442 589.71 301.886 589.353C298.329 588.996 294.897 587.848 291.841 585.995C288.785 584.141 286.181 581.628 284.22 578.64C283.049 584.749 283.236 591.041 284.77 597.07C286.304 603.098 289.146 608.715 293.095 613.522C297.043 618.329 302.001 622.207 307.617 624.882C313.234 627.557 319.37 628.963 325.59 629C336.236 628.997 346.483 624.95 354.26 617.68L354.81 617.14L355.36 616.6L356.09 615.87L379.57 592.27L417.71 553.94C422.245 549.513 428.342 547.051 434.679 547.087C441.016 547.122 447.085 549.653 451.57 554.13L494.23 597C525.618 604.267 558.48 601.715 588.37 589.69Z" fill="white"/>
</g>
<defs>
<clipPath id="clip0_2_2931">
<rect width="1024" height="1024" fill="white"/>
</clipPath>
</defs>
</svg>
